X: 31505
T: Paddy's
R: polka
M: 2/4
K: Eminor
F/A/|:BE ED/E/|FD FA|BE ED/E/|FE D2|
BE ED/E/|FD FA|B>c BA|FE E2:|
|:Be ed/e/|fe ed|Be ed/e/|fe d2|
Be ed/e/|fe ed|B/A/B/c/ BA|FE E2:|

